contributed-vectors/picsart_animator_alt.svg

<svg xmlns="http://www.w3.org/2000/svg" xmlns:xlink="http://www.w3.org/1999/xlink" viewBox="0 0 192 192"><defs><linearGradient id="a"><stop offset="0" style="stop-color:#98dc9a;stop-opacity:1"/><stop offset=".5" style="stop-color:#9abeff;stop-opacity:1"/><stop offset="1" style="stop-color:#bd9aff;stop-opacity:1"/></linearGradient><linearGradient xlink:href="#a" id="b" x1="160" x2="32" y1="160" y2="32" gradientUnits="userSpaceOnUse"/></defs><rect width="152" height="152" x="20" y="20" rx="10" style="fill:url(#b);stroke:none;opacity:1;fill-opacity:1;stroke-linecap:round;stroke-linejoin:round;isolation:isolate"/><path d="M80 60c-11.08 0-20 8.92-20 20s8.92 20 20 20 20-8.92 20-20-8.92-20-20-20zm0 8c6.648 0 12 5.352 12 12s-5.352 12-12 12-12-5.352-12-12 5.352-12 12-12z" style="opacity:.25;vector-effect:none;fill:#fff;fill-opacity:1;fill-rule:evenodd;stroke:none;stroke-width:4;stroke-linecap:round;stroke-linejoin:round;stroke-miterlimit:4;stroke-dasharray:none;paint-order:stroke fill markers"/><path d="M96 76c-11.08 0-20 8.92-20 20s8.92 20 20 20 20-8.92 20-20-8.92-20-20-20zm0 8c6.648 0 12 5.352 12 12s-5.352 12-12 12-12-5.352-12-12 5.352-12 12-12z" style="opacity:.5;vector-effect:none;fill:#fff;fill-opacity:1;fill-rule:evenodd;stroke:none;stroke-width:4;stroke-linecap:round;stroke-linejoin:round;stroke-miterlimit:4;stroke-dasharray:none;paint-order:stroke fill markers"/><path d="M112 92c-11.08 0-20 8.92-20 20s8.92 20 20 20 20-8.92 20-20-8.92-20-20-20zm0 8c6.648 0 12 5.352 12 12s-5.352 12-12 12-12-5.352-12-12 5.352-12 12-12z" style="opacity:1;vector-effect:none;fill:#fff;fill-opacity:1;fill-rule:evenodd;stroke:none;stroke-width:4;stroke-linecap:round;stroke-linejoin:round;stroke-miterlimit:4;stroke-dasharray:none;paint-order:stroke fill markers"/></svg>

<?xml version="1.0" encoding="UTF-8" standalone="no"?>
<svg
   xmlns:dc="http://purl.org/dc/elements/1.1/"
   xmlns:cc="http://creativecommons.org/ns#"
   xmlns:rdf="http://www.w3.org/1999/02/22-rdf-syntax-ns#"
   xmlns:svg="http://www.w3.org/2000/svg"
   xmlns="http://www.w3.org/2000/svg"
   xmlns:xlink="http://www.w3.org/1999/xlink"
   xmlns:sodipodi="http://sodipodi.sourceforge.net/DTD/sodipodi-0.dtd"
   xmlns:inkscape="http://www.inkscape.org/namespaces/inkscape"
   viewBox="0 0 192 192"
   version="1.1"
   id="svg16"
   sodipodi:docname="picsart_animator.svg"
   inkscape:version="0.92.4 (5da689c313, 2019-01-14)">
  <metadata
     id="metadata20">
    <rdf:RDF>
      <cc:Work
         rdf:about="">
        <dc:format>image/svg+xml</dc:format>
        <dc:type
           rdf:resource="http://purl.org/dc/dcmitype/StillImage" />
        <dc:title></dc:title>
      </cc:Work>
    </rdf:RDF>
  </metadata>
  <sodipodi:namedview
     pagecolor="#ffffff"
     bordercolor="#666666"
     borderopacity="1"
     objecttolerance="10"
     gridtolerance="10"
     guidetolerance="10"
     inkscape:pageopacity="0"
     inkscape:pageshadow="2"
     inkscape:window-width="1920"
     inkscape:window-height="1017"
     id="namedview18"
     showgrid="true"
     inkscape:zoom="4.9166667"
     inkscape:cx="120.86567"
     inkscape:cy="98.440681"
     inkscape:window-x="-8"
     inkscape:window-y="-8"
     inkscape:window-maximized="1"
     inkscape:current-layer="svg16"
     showguides="false">
    <inkscape:grid
       type="xygrid"
       id="grid827"
       spacingx="4"
       spacingy="4" />
  </sodipodi:namedview>
  <defs
     id="defs4">
    <linearGradient
       inkscape:collect="always"
       id="linearGradient885">
      <stop
         style="stop-color:#98dc9a;stop-opacity:1"
         offset="0"
         id="stop881" />
      <stop
         id="stop889"
         offset="0.5"
         style="stop-color:#9abeff;stop-opacity:1" />
      <stop
         style="stop-color:#bd9aff;stop-opacity:1"
         offset="1"
         id="stop883" />
    </linearGradient>
    <style
       id="style2">.a{fill:none;stroke:#b1b5bd;stroke-linecap:round;stroke-linejoin:round;isolation:isolate;opacity:0.63;}</style>
    <linearGradient
       inkscape:collect="always"
       xlink:href="#linearGradient885"
       id="linearGradient887"
       x1="160"
       y1="160"
       x2="32"
       y2="32"
       gradientUnits="userSpaceOnUse" />
  </defs>
  <rect
     class="a"
     x="20"
     y="20"
     width="152"
     height="152"
     rx="10"
     id="rect6"
     style="fill:url(#linearGradient887);stroke:none;opacity:1;fill-opacity:1" />
  <path
     style="opacity:0.25;vector-effect:none;fill:#ffffff;fill-opacity:1;fill-rule:evenodd;stroke:none;stroke-width:4;stroke-linecap:round;stroke-linejoin:round;stroke-miterlimit:4;stroke-dasharray:none;paint-order:stroke fill markers"
     d="M 80 60 C 68.92 60 60 68.92 60 80 C 60 91.08 68.92 100 80 100 C 91.08 100 100 91.08 100 80 C 100 68.92 91.08 60 80 60 z M 80 68 C 86.648 68 92 73.352 92 80 C 92 86.648 86.648 92 80 92 C 73.352 92 68 86.648 68 80 C 68 73.352 73.352 68 80 68 z "
     id="rect850-1" />
  <path
     style="opacity:0.5;vector-effect:none;fill:#ffffff;fill-opacity:1;fill-rule:evenodd;stroke:none;stroke-width:4;stroke-linecap:round;stroke-linejoin:round;stroke-miterlimit:4;stroke-dasharray:none;paint-order:stroke fill markers"
     d="M 96 76 C 84.92 76 76 84.92 76 96 C 76 107.08 84.92 116 96 116 C 107.08 116 116 107.08 116 96 C 116 84.92 107.08 76 96 76 z M 96 84 C 102.648 84 108 89.352 108 96 C 108 102.648 102.648 108 96 108 C 89.352 108 84 102.648 84 96 C 84 89.352 89.352 84 96 84 z "
     id="rect850-0" />
  <path
     style="opacity:1;vector-effect:none;fill:#ffffff;fill-opacity:1;fill-rule:evenodd;stroke:none;stroke-width:4;stroke-linecap:round;stroke-linejoin:round;stroke-miterlimit:4;stroke-dasharray:none;paint-order:stroke fill markers"
     d="M 112 92 C 100.92 92 92 100.92 92 112 C 92 123.08 100.92 132 112 132 C 123.08 132 132 123.08 132 112 C 132 100.92 123.08 92 112 92 z M 112 100 C 118.648 100 124 105.352 124 112 C 124 118.648 118.648 124 112 124 C 105.352 124 100 118.648 100 112 C 100 105.352 105.352 100 112 100 z "
     id="rect850" />
</svg>
